flags/do.svg

<svg width="512" height="512" viewBox="0 0 512 512" fill="none" xmlns="http://www.w3.org/2000/svg">
<rect width="256" height="256" fill="var(--flag-palette-blue, #0052b4)"/>
<rect x="512" width="256" height="256" transform="rotate(90 512 0)" fill="var(--flag-palette-bright-red, #d80027)"/>
<rect x="512" y="512" width="256" height="256" transform="rotate(-180 512 512)" fill="var(--flag-palette-blue, #0052b4)"/>
<rect y="512" width="256" height="256" transform="rotate(-90 0 512)" fill="var(--flag-palette-bright-red, #d80027)"/>
<path d="M512 320V192H320V0H192V192H0V320H192V512H320V320H512Z" fill="var(--flag-palette-white, #eeeeee)"/>
<path d="M512 288V224H288V0H224V224H0V288H224V512H288V288H512Z" fill="var(--flag-palette-white, #eeeeee)"/>
<path d="M208.025 205.359V258.665C208.025 285.161 229.504 306.64 256 306.64C282.497 306.64 303.975 285.161 303.975 258.665V205.359H208.025Z" fill="var(--flag-palette-bright-red, #d80027)"/>
<path fill-rule="evenodd" clip-rule="evenodd" d="M208.025 256H256V205.359H208.025V256ZM303.975 256H256.001V306.64H256.12C282.561 306.575 303.975 285.122 303.975 258.665V256Z" fill="var(--flag-palette-blue, #0052b4)"/>
<path fill-rule="evenodd" clip-rule="evenodd" d="M240.902 245.837L239.357 250.592C238.503 253.219 238.283 256.01 238.715 258.737C239.147 261.465 240.219 264.052 241.842 266.286C243.465 268.52 245.594 270.339 248.055 271.592C250.516 272.846 253.238 273.5 256 273.5C258.762 273.5 261.484 272.846 263.945 271.592C266.406 270.339 268.535 268.52 270.158 266.286C271.781 264.052 272.853 261.465 273.285 258.737C273.717 256.01 273.497 253.219 272.643 250.592L271.098 245.837L280.609 242.747L282.154 247.502C283.495 251.629 283.84 256.015 283.161 260.302C282.483 264.588 280.799 268.653 278.248 272.164C275.697 275.675 272.352 278.532 268.485 280.503C264.618 282.473 260.34 283.5 256 283.5C251.66 283.5 247.382 282.473 243.515 280.503C239.648 278.532 236.303 275.675 233.752 272.164C231.201 268.653 229.517 264.588 228.839 260.302C228.16 256.015 228.505 251.629 229.846 247.502L231.391 242.747L240.902 245.837Z" fill="var(--flag-palette-green, #6da544)"/>
</svg>

<svg xmlns="http://www.w3.org/2000/svg" width="512" height="512" fill="none"><path fill="var(--flag-palette-blue, #0052b4)" d="M0 0h256v256H0z"/><path fill="var(--flag-palette-bright-red, #d80027)" d="M512 0v256H256V0z"/><path fill="var(--flag-palette-blue, #0052b4)" d="M512 512H256V256h256z"/><path fill="var(--flag-palette-bright-red, #d80027)" d="M0 512V256h256v256z"/><path fill="var(--flag-palette-white, #eeeeee)" d="M512 320V192H320V0H192v192H0v128h192v192h128V320z"/><path fill="var(--flag-palette-white, #eeeeee)" d="M512 288v-64H288V0h-64v224H0v64h224v224h64V288z"/><path fill="var(--flag-palette-bright-red, #d80027)" d="M208 205.4v53.3a48 48 0 1 0 96 0v-53.3z"/><path fill="var(--flag-palette-blue, #0052b4)" fill-rule="evenodd" d="M208 256h48v-50.6h-48zm96 0h-48v50.6h.1a48 48 0 0 0 47.9-48z" clip-rule="evenodd"/><path fill="var(--flag-palette-green, #6da544)" fill-rule="evenodd" d="m240.9 245.8-1.5 4.8a17.5 17.5 0 1 0 33.2 0l-1.5-4.8 9.5-3 1.6 4.7a27.5 27.5 0 1 1-52.4 0l1.6-4.8z" clip-rule="evenodd"/></svg>
